X:1
T:Polsk
T:(Totakt-pols, nr. MN-255)
S:efter Mads Nielsen
R:Totakt-pols
O:Tyvkjaer Mark, Vejle amt, Danmark
Z:ABC-transkribering av Åke Persson
M:2/4
L:1/8
Q:1/4=108
K:D
A2 |: "D"fefe | dcdf | "A"e/g/e/d/ ce | "D"df a2 | fefe | dcdf | "A"e/g/e/d/ ce |1 "D"d2 A2 :|2 "D"d2 a2 |]
"Em"ag"A"eg | "D"fedf | "A"e/g/e/d/ ce | "D"df a2 | "Em"ag"A"eg | "D"fedf | "A"e/g/e/d/ ce |1 "D"d2 A2 :|2 "D"d2 z2 |]

